findly-builder/apps/searchassist/src/assets/icons/actions/external.svg

<svg width="16" height="17" viewBox="0 0 16 17" fill="none" xmlns="http://www.w3.org/2000/svg">
<path d="M7.63502 14.2585C7.34487 14.2585 7.10966 14.0233 7.10966 13.7331C7.10966 13.4591 7.31947 13.2341 7.58721 13.2099L7.63502 13.2078H12.0147C12.5124 13.2078 12.9193 12.8187 12.9477 12.3281L12.9493 12.2732V4.24375C12.9493 3.74605 12.5602 3.33922 12.0696 3.3108L12.0147 3.30921H3.98527C3.48757 3.30921 3.08074 3.69827 3.05231 4.18884L3.05073 4.24375V8.62346C3.05073 8.91361 2.81551 9.14882 2.52536 9.14882C2.25133 9.14882 2.0263 8.93902 2.00215 8.67128L2 8.62346V4.24375C2 3.17224 2.84889 2.29899 3.91084 2.25985L3.98527 2.25848H12.0147C13.0862 2.25848 13.9595 3.10738 13.9986 4.16932L14 4.24375V12.2732C14 13.3447 13.1511 14.218 12.0892 14.2571L12.0147 14.2585H7.63502Z" fill="white"/>
<path d="M10.0029 5.86247C10.2769 5.86247 10.502 6.07227 10.5261 6.34001L10.5283 6.38783L10.5283 9.30763C10.5283 9.59778 10.293 9.833 10.0029 9.833C9.72887 9.833 9.50384 9.62319 9.47968 9.35545L9.47754 9.30763L9.47733 7.66238L4.38038 12.7593C4.17521 12.9645 3.84257 12.9645 3.6374 12.7593C3.4443 12.5662 3.43294 12.2602 3.60333 12.0538L3.6374 12.0164L8.74079 6.91297L7.08309 6.91319C6.80906 6.91319 6.58403 6.70339 6.55988 6.43565L6.55773 6.38783C6.55773 6.1138 6.76753 5.88877 7.03527 5.86461L7.08309 5.86247H10.0029Z" fill="white"/>
</svg>

<svg width="16" height="17" fill="none" xmlns="http://www.w3.org/2000/svg"><path d="M7.635 14.258a.525.525 0 0 1-.048-1.048l.048-.002h4.38c.497 0 .904-.39.933-.88l.001-.055v-8.03a.935.935 0 0 0-.88-.932l-.054-.002h-8.03a.935.935 0 0 0-.933.88l-.001.055v4.38a.525.525 0 0 1-1.049.047L2 8.623v-4.38c0-1.07.849-1.944 1.91-1.983l.075-.002h8.03c1.071 0 1.944.85 1.984 1.911l.001.075v8.03a1.985 1.985 0 0 1-1.91 1.983l-.075.002h-4.38Z" fill="#fff"/><path d="M10.003 5.862c.274 0 .499.21.523.478l.002.048v2.92a.525.525 0 0 1-1.048.047l-.002-.047V7.662L4.38 12.76a.525.525 0 0 1-.777-.705l.034-.038 5.104-5.103H7.083a.525.525 0 0 1-.523-.477l-.002-.048c0-.274.21-.5.477-.523l.048-.003h2.92Z" fill="#fff"/></svg>
